X: 43125
T: Wink And She'll Follow You
R: slip jig
M: 9/8
K: Edorian
|:EEE BAG Bcd|E2B BAF A2F|EEE BAG Bcd|edB BAF A2F:|
d2f fdB Bcd|c2e efe cBA|d2f fdB Bcd|edB BAF ~A3|
d2f fdB Bcd|c2e efe cBA|d2f aaa fed|cBA BAF A2F||

